src/icons/outline/symbols/ticket.svg

<svg width="24" height="24" viewBox="0 0 24 24" fill="none" xmlns="http://www.w3.org/2000/svg">
<g clip-path="url(#clip0_4704_931)">
<path fill-rule="evenodd" clip-rule="evenodd" d="M13.7511 1C14.2473 1 14.7154 1.19088 15.0685 1.54395L17.1192 3.58594C17.396 3.86267 17.396 4.32093 17.1192 4.59766C16.8045 4.91252 16.6329 5.32289 16.6329 5.76172C16.6329 6.1911 16.7951 6.59212 17.0909 6.89746C17.3867 7.20273 17.8069 7.33639 18.2267 7.35547C18.6655 7.35542 19.0759 7.17414 19.3907 6.85938C19.5243 6.72578 19.7057 6.64941 19.8966 6.64941L20.0372 6.66309C20.175 6.69082 20.3023 6.75919 20.4024 6.85938L22.4542 8.90137C23.1886 9.6266 23.179 10.8288 22.4444 11.5635L20.2169 13.7959C20.1994 13.8183 20.1837 13.8428 20.1632 13.8633C20.1418 13.8847 20.1168 13.9009 20.0939 13.9189L11.6036 22.4326C11.2411 22.7949 10.7643 22.995 10.2589 22.9951H10.2491C9.75292 22.9951 9.28481 22.8042 8.93174 22.4512L6.88096 20.4092C6.60423 20.1325 6.60423 19.6742 6.88096 19.3975C7.19567 19.0826 7.36729 18.6722 7.36729 18.2334C7.36725 17.804 7.20506 17.403 6.90928 17.0977C6.61348 16.8019 6.20287 16.6396 5.77354 16.6396C5.33473 16.6397 4.92431 16.821 4.60948 17.1357C4.47588 17.2693 4.29446 17.3457 4.10362 17.3457C3.91283 17.3457 3.73131 17.2693 3.59776 17.1357L1.546 15.0938C0.81164 14.3685 0.821168 13.1663 1.55577 12.4316L12.4054 1.56348C12.768 1.20088 13.2454 1.00001 13.7511 1ZM2.58702 13.4434C2.40571 13.6247 2.39572 13.9112 2.56748 14.083L4.171 15.6758C4.64789 15.3802 5.19157 15.2186 5.76377 15.209C6.56533 15.209 7.34846 15.5144 7.921 16.0869C8.49333 16.6594 8.80847 17.4322 8.79893 18.2432C8.79891 18.8157 8.63672 19.3598 8.34092 19.8369V19.8467L9.94346 21.4395C10.0198 21.5158 10.1346 21.5635 10.2491 21.5635C10.3731 21.5635 10.4972 21.5162 10.5831 21.4209L18.6349 13.3467L10.6437 5.37207L2.58702 13.4434ZM13.7608 2.44043C13.6368 2.44043 13.5127 2.48864 13.4269 2.58398L11.6534 4.36035L19.6446 12.334L21.423 10.5518C21.6043 10.3705 21.6142 10.0839 21.4425 9.91211L19.839 8.31934C19.3619 8.61504 18.8176 8.77659 18.2452 8.78613C17.4342 8.80511 16.6614 8.48066 16.089 7.9082C15.5166 7.33569 15.2015 6.57247 15.211 5.75195C15.2111 5.17947 15.3733 4.63528 15.669 4.1582L14.0665 2.56543C14.0092 2.50813 13.93 2.46619 13.8458 2.44922L13.7608 2.44043Z" fill="#3C3B44"/>
</g>
<defs>
<clipPath id="clip0_4704_931">
<rect width="24" height="24" fill="white"/>
</clipPath>
</defs>
</svg>

<svg xmlns="http://www.w3.org/2000/svg" width="24" height="24" fill="none" viewBox="0 0 24 24"><g clip-path="url(#a)"><path fill="currentColor" fill-rule="evenodd" d="M13.751 1c.496 0 .964.19 1.318.544l2.05 2.042a.72.72 0 0 1 0 1.012 1.63 1.63 0 0 0-.486 1.164c0 .43.162.83.458 1.135s.716.44 1.136.458c.439 0 .849-.18 1.164-.496a.72.72 0 0 1 .506-.21l.14.014a.7.7 0 0 1 .365.196l2.052 2.042c.735.726.725 1.928-.01 2.662l-2.227 2.233c-.018.022-.033.047-.054.067q-.033.031-.07.056l-8.49 8.514a1.9 1.9 0 0 1-1.344.562h-.01c-.496 0-.964-.19-1.317-.544L6.88 20.41a.72.72 0 0 1 0-1.011c.315-.315.486-.726.486-1.165 0-.429-.162-.83-.458-1.135a1.6 1.6 0 0 0-1.135-.458c-.44 0-.85.181-1.165.496a.715.715 0 0 1-1.011 0l-2.052-2.042c-.734-.726-.725-1.928.01-2.662l10.85-10.869c.362-.362.84-.563 1.345-.563M2.587 13.443c-.181.182-.191.468-.02.64l1.604 1.593a3.1 3.1 0 0 1 1.593-.467c.801 0 1.584.305 2.157.878.572.572.887 1.345.878 2.156 0 .573-.162 1.117-.458 1.594v.01l1.602 1.592a.45.45 0 0 0 .64-.019l8.052-8.073-7.991-7.975zM13.761 2.44a.45.45 0 0 0-.334.144L11.653 4.36l7.992 7.974 1.778-1.782c.181-.181.191-.468.02-.64L19.839 8.32a3.1 3.1 0 0 1-1.594.467 2.95 2.95 0 0 1-2.156-.878 2.98 2.98 0 0 1-.878-2.156c0-.573.162-1.117.458-1.594l-1.603-1.593a.44.44 0 0 0-.22-.116z" clip-rule="evenodd"/></g><defs><clipPath id="a"><path fill="currentColor" d="M0 0h24v24H0z"/></clipPath></defs></svg>
